X:3
T:Ding Dong Merrily on High
H: 
C:Orchesographie (1588)
O:Kevin Fraser
Z:Kevin Fraser
Q:1/4=90
K:HP
M:4/4
L:1/8
R:March
V:gstem=up stem=down
%%MIDI gracedivider 4
%%MIDI gchord
%%MIDI beatstring
w:
T: Ding Dong Merrily on High (Melody)
e |: d2 d2 ed cB | A6       A2 | B2 d2 d2 c2 | d4   d4    :|
  |: a3 g  fg af | g3 f  ef ge | f3 e  de fd | e3 d cd ec  |
  |  d3 c  Bc dB | c3 B  A2 A2 | B2 d2 d2 c2 | d4   d4    :|

T: Ding Dong Merrily on High (Seconds)
e |: A2 A2 BB GG | e6       A2 | B2 G2 e2 A2 | A4    A4    :|
  |  c2 A4    d2 | dc BA BA G2 | c2 AG dc B2 | BA Gf gf e2  |
  |  A2 fe c2 G2 | ef gf e2 e2 | B2 G2 e2 A2 | A4    A4    :|
W:Ding dong! merrily on high
W:In heav'n the bells are ringing:
W:Ding dong! verily the sky
W:Is riv'n with Angel singing.
W:Gloria; Hosanna in excelsis!
W:
W:(George Ratcliffe Woodward, 1924)

